dist/icons/svgs/house-circle-exclamation-outline.svg

<svg xmlns="http://www.w3.org/2000/svg" width="24" height="24" fill="currentcolor" class="icon-house-circle-exclamation-outline" viewBox="0 0 24 24">
  <path d="M12.3648 2.23438L20.7295 9.61719C20.3544 9.53906 19.9793 9.5 19.6042 9.5C19.0415 9.5 18.5539 9.57812 18.0288 9.69531L11.8021 4.1875L5.20041 10.0078V18.875C5.20041 19.5781 5.72555 20.125 6.40073 20.125H8.20119V14.1875C8.20119 13.3281 8.83886 12.625 9.70158 12.625H13.9027C13.9402 12.625 13.9777 12.625 14.0527 12.6641C13.6776 13.2109 13.4151 13.8359 13.2275 14.5H10.0017V20.125H13.6026H14.0527C14.5028 20.8672 15.103 21.5312 15.7782 22H6.40073C4.71279 22 3.39994 20.6328 3.39994 18.875V11.6094L2.4622 12.4297C2.0871 12.7422 1.52446 12.7031 1.18687 12.3125C0.88679 11.9219 0.9243 11.3359 1.2994 10.9844L11.202 2.23438C11.5396 1.96094 12.0272 1.96094 12.3648 2.23438ZM19.6042 22C17.6537 22 15.8907 20.9453 14.9154 19.1875C13.9402 17.4688 13.9402 15.3203 14.9154 13.5625C15.8907 11.8438 17.6537 10.75 19.6042 10.75C21.5172 10.75 23.2801 11.8438 24.2554 13.5625C25.2306 15.3203 25.2306 17.4688 24.2554 19.1875C23.2801 20.9453 21.5172 22 19.6042 22ZM19.6042 18.25C19.079 18.25 18.7039 18.6797 18.7039 19.1875C18.7039 19.7344 19.079 20.125 19.6042 20.125C20.0918 20.125 20.5044 19.7344 20.5044 19.1875C20.5044 18.6797 20.0918 18.25 19.6042 18.25ZM19.6042 12.625C19.2666 12.625 19.004 12.9375 19.004 13.25V16.375C19.004 16.7266 19.2666 17 19.6042 17C19.9042 17 20.2043 16.7266 20.2043 16.375V13.25C20.2043 12.9375 19.9042 12.625 19.6042 12.625Z"/>
</svg>

<svg xmlns="http://www.w3.org/2000/svg" width="24" height="24" fill="currentColor" class="icon-house-circle-exclamation-outline" viewBox="0 0 24 24">
  <path d="m12.365 2.234 8.365 7.383a5.5 5.5 0 0 0-1.126-.117 7 7 0 0 0-1.575.195l-6.227-5.507-6.602 5.82v8.867c0 .703.526 1.25 1.2 1.25h1.801v-5.937c0-.86.638-1.563 1.5-1.563h4.202a.27.27 0 0 1 .15.04c-.375.546-.638 1.17-.826 1.835h-3.225v5.625h4.05c.45.742 1.051 1.406 1.726 1.875H6.401C4.713 22 3.4 20.633 3.4 18.875v-7.266l-.938.82a.91.91 0 0 1-1.275-.117c-.3-.39-.263-.976.112-1.328l9.903-8.75a.93.93 0 0 1 1.163 0M19.605 22c-1.951 0-3.714-1.055-4.69-2.812-.975-1.72-.975-3.868 0-5.625.976-1.72 2.739-2.813 4.69-2.813 1.912 0 3.675 1.094 4.65 2.813.976 1.757.976 3.906 0 5.624C23.28 20.946 21.517 22 19.605 22m0-3.75c-.526 0-.901.43-.901.938 0 .546.375.937.9.937.488 0 .9-.39.9-.937 0-.508-.412-.938-.9-.938m0-5.625c-.338 0-.601.313-.601.625v3.125c0 .352.263.625.6.625.3 0 .6-.273.6-.625V13.25c0-.312-.3-.625-.6-.625"/>
</svg>
